X: 6674
T: Celia's Favourite
R: reel
M: 4/4
K: Dmajor
|:DEFA dfaf|efdf eBBF|BAFB A2FA|dFAF E2FE|
DEFA dfaf|efdf eBBF|A2FB ABdf|1 edef d2FE:|2 edef d2fe||
|:defa b2af|edfd eBBA|BAFB ABdf|afdf e2fe|
defa b2af|edfd eBBF|A2FB ABdf|1 edef d2fe:|2 edef d2FE||

